!!!OTL: Abschied von Köln (251), S. 538
!!!id: T0440
**kern
*clefG2
*k[f#c#]
*D:
{8d
8f#
=1
4a
4b
8.a
16g
=2
8g
8f#
8f#}
=3
{8f#
8.e
16f#
=4
4g
4b
8.a
16g
=5
4f#}
4r
=6
{8a
8a
=7
8g
8f#
4e
8f#
8a
=8
8a
8dd
8dd}
=9
{8dd
8cc#
16b
16b
=10
8.a
16g
8b
8a
8g
8a
=11
4f#}
4r
==
*-
!!!minrhy: 16
!!!meters: 3/4 ]  ZZ[4
!!!cut: Abschied von Köln (251), S. 538
!!!reg: Luxemburg
!!!trd: Singendes Volk, Esch-Alzette, 1937 posth.
!!!rhy1: X_X_  X__X__X_.X  X_X_X_
!!!rhy2: X_X_.X  X__X__X_.X  X__0__
!!!key: T0440  16  D 3/4 ]  ZZ[4
!!!mod: HEPTATONIK IONISCH]  AMBITUS[8
!!!kad: 33+13
!!!akz: 54_43_45_53_
!!!fot: 'a__b__c__d__
!!!for: 'a__aw_b__c__
!!!fok: '^a_^__Va_\__
!! PHRAS[AUFTAKTIG]
!!!fkt: Berufslied
!!!bem: Junglinster, hhh Nikolaus Hoffmann, 1890
!! THILL; Mathias
!! PR[15] 2K[6] 2G[15] 3K[9] 3G[9] 4A[3] 4Ü[0] 5A[0] 6K[0] 6G[0]
!! 7K[0] 7G[0] 8A[0] MEHR[0] SI[41] ABS[34] SR[21] SP[21]
!! ST[8] 2k[6] 2g[21] 3k[9] 3g[6] 4d[3] 4ü[0] 5d[0] 6k[0] 6g[0]
!! 7k[0] 7g[0] 8d[0] mehr[0] si[44] dm[-3] sr[26] sp[18]
!! 1F[67] 2F[33] 3F[0] 4F[0] LF[0] 2P[0] 3P[0] 4P[0] TRI[0] DF[2] AB[36]
!! TF[0] U3K[0] U3[0] U4[0] U4Ü[0] U5[0] U6K[0] U6[0] U7K[0] U7[0]
!! N1[17] N2K[0] N2[3] N3K[0] N3[20] N4[3] N4Ü[0] N5[31] N6K[0] N6[14]
!!!n7k: 0] N7[6] O1[6] O2K[0] O2[0] O3K[0] O3[0] HÖ[0
